webroot/img/new-desgin/why_besa/icon-9.svg

<svg width="104" height="105" viewBox="0 0 104 105" fill="none" xmlns="http://www.w3.org/2000/svg">
<g id="Frame">
<g id="Group">
<path id="Vector" d="M90.1176 60.6508C91.2941 55.2251 91.2941 49.6103 90.1176 44.1846C101.33 26.8556 104.273 12.775 97.9647 6.44888C92.3813 0.881626 80.6634 2.50338 65.8125 10.9014L67.4115 13.7289C80.6975 6.2165 91.2616 4.351 95.667 8.74663C100.394 13.4868 97.7324 25.5459 88.946 39.9466C85.8882 30.8638 79.5907 23.2263 71.257 18.4938C62.9233 13.7613 53.1379 12.2656 43.771 14.2928C26.4404 3.09325 12.35 0.142251 6.032 6.45213C0.443625 12.0551 2.09462 23.8169 10.5625 38.736L13.39 37.1305C5.80937 23.7828 3.9195 13.1731 8.32975 8.74988C13.0747 4.02113 25.1339 6.68613 39.5298 15.4709C31.796 18.0768 25.0749 23.0439 20.3139 29.6723C15.5528 36.3006 12.9918 44.2559 12.9918 52.4169C12.9918 60.5779 15.5528 68.5332 20.3139 75.1615C25.0749 81.7898 31.796 86.757 39.5298 89.3629C25.1193 98.1493 13.0601 100.813 8.32975 96.0871C3.94225 91.6801 5.79475 81.1225 13.3022 67.843L10.4748 66.244C2.08487 81.0867 0.46475 92.7997 6.03525 98.3849C7.27417 99.5181 8.72778 100.391 10.3101 100.953C11.8924 101.514 13.5713 101.753 15.2474 101.654C22.5322 101.654 32.4594 97.8438 43.7612 90.5345C53.1296 92.5646 62.9175 91.0705 71.2534 86.3377C79.5894 81.6049 85.8884 73.9657 88.946 64.8806C97.7324 79.2879 100.394 91.347 95.6703 96.0806C91.1528 100.588 80.275 98.5474 66.5827 90.6239L64.9577 93.4351C74.3551 98.8805 82.5272 101.654 88.7543 101.654C90.4307 101.753 92.11 101.514 93.6926 100.952C95.2752 100.391 96.729 99.5169 97.968 98.3832C104.273 92.0669 101.327 77.9798 90.1176 60.6508ZM78.975 62.3781L77.6555 60.6231C79.2534 58.7815 80.7874 56.9317 82.2575 55.0737C83.811 57.1494 85.2735 59.2153 86.645 61.2715C85.6709 65.0592 84.0787 68.6604 81.9325 71.9299L79.625 69.6256V64.3281C79.6213 63.6255 79.3936 62.9424 78.975 62.3781ZM74.75 56.7556V51.5069C74.7448 50.6436 74.4032 49.8164 73.7978 49.201L71.7421 47.1616C71.32 46.7314 70.7869 46.4266 70.2019 46.2812C69.617 46.1357 69.0032 46.1553 68.4288 46.3377L64.9285 47.4753L59.8325 46.2419L58.6154 41.3425L61.0025 37.7919H66.1375L69.3176 39.9044C73.2371 43.9799 76.9096 48.1919 80.2295 52.4169C78.7713 54.2715 77.2487 56.1197 75.6616 57.9614L74.75 56.7556ZM80.8535 31.3423C82.0759 33.0108 83.1513 34.7822 84.0678 36.6365L79.3423 39.334L72.1386 37.8845L71.3976 37.397C70.6826 36.6576 69.9676 35.915 69.2364 35.1854C67.8609 33.814 66.4626 32.4656 65.0423 31.1407C65.3937 31.1772 65.7488 31.153 66.092 31.0693L71.3115 29.7692L76.427 32.3205C76.9383 32.5762 77.508 32.6925 78.0786 32.6577C78.6492 32.6229 79.2006 32.4382 79.677 32.1222L80.8535 31.3423ZM85.3775 39.6297C85.874 40.9155 86.295 42.2291 86.6385 43.5639C85.2746 45.6168 83.8121 47.6822 82.251 49.76C80.1142 47.0716 77.895 44.4498 75.5966 41.8983L78.7508 42.5304C79.5093 42.6596 80.2891 42.5236 80.9591 42.1453L85.3775 39.6297ZM84.318 52.4169C85.3985 50.9988 86.4527 49.561 87.4803 48.1041C87.8399 50.9686 87.8399 53.8668 87.4803 56.7312C86.4531 55.2736 85.3988 53.8352 84.318 52.4169ZM78.8125 28.8008L77.8879 29.4166L72.8 26.88C72.1015 26.5106 71.2905 26.4144 70.525 26.6103L65.3055 27.9103L62.3805 25.9733L64.2525 23.1669H71.0125C71.4111 23.1578 71.8046 23.0746 72.1728 22.9215C74.6193 24.6009 76.8493 26.5755 78.8125 28.8008ZM66.8655 19.9169H64.2525C63.7153 19.9178 63.1866 20.051 62.713 20.3046C62.2394 20.5583 61.8356 20.9246 61.5371 21.3713L59.657 24.1809C59.3345 24.6803 59.1552 25.2587 59.1386 25.853C58.0076 24.8878 56.8734 23.9453 55.7359 23.0255C55.8099 22.2094 55.5722 21.3956 55.0705 20.7477C54.5689 20.0999 53.8405 19.666 53.0319 19.5334L50.7569 19.1483C49.7342 18.3899 48.7132 17.6527 47.6938 16.9366C49.1225 16.7607 50.5605 16.6706 52 16.6669C57.1317 16.6642 62.2031 17.7729 66.8655 19.9169ZM42.5344 17.949L43.6849 19.9868C43.9131 20.4253 44.2411 20.8042 44.6424 21.093C45.0437 21.3817 45.5072 21.5722 45.9956 21.6491L49.4244 22.2228C50.1784 22.7882 50.934 23.3603 51.688 23.9469L50.9893 24.9869L45.6268 26.3275C44.9187 26.5128 44.295 26.9342 43.8587 27.5219L39.559 33.2679L33.5969 36.2481L26.988 37.5611C26.251 37.7084 25.5878 38.1067 25.1114 38.688C24.6349 39.2693 24.3747 39.9978 24.375 40.7494V43.4144C24.3769 43.9525 24.5113 44.482 24.7663 44.9558C25.0214 45.4297 25.3893 45.8335 25.8375 46.1314L29.25 48.4194V51.4207L22.1829 47.8766L17.7515 42.1891C19.4985 36.3842 22.6878 31.1166 27.0215 26.8777C31.3552 22.6389 36.6922 19.5671 42.5344 17.949ZM16.25 52.4169C16.2529 50.35 16.4345 48.2872 16.7927 46.2516L19.5975 49.8478C19.8971 50.2396 20.2815 50.5585 20.722 50.7805L27.7989 54.3311C28.2499 54.5532 28.7457 54.6694 29.2484 54.6708H29.2922C29.2723 54.7782 29.2582 54.8867 29.25 54.9958V59.8838C29.2567 60.74 29.5985 61.5596 30.2023 62.1669L32.7892 64.7539C33.0363 65.0011 33.3216 65.2069 33.6343 65.3632L35.7467 66.4211V71.6731C35.7442 72.022 35.7991 72.369 35.9092 72.7001L38.8099 81.3971C38.9719 81.8768 39.243 82.3123 39.602 82.6693C39.961 83.0263 40.398 83.295 40.8785 83.4544L42.8545 84.1044C43.343 84.2659 43.8628 84.3092 44.3712 84.2306C44.8797 84.1521 45.3622 83.9539 45.7792 83.6525C46.1961 83.3511 46.5355 82.955 46.7695 82.4968C47.0034 82.0386 47.1253 81.5314 47.125 81.0169V76.1711L51.8277 73.8165C52.3658 73.5503 52.8191 73.1394 53.1366 72.6299C53.454 72.1204 53.6232 71.5325 53.625 70.9321L53.6429 68.2184L56.4704 67.2791C56.9906 67.1076 57.4589 66.8068 57.8312 66.4049C58.2035 66.003 58.4677 65.5132 58.5991 64.9814L59.5091 61.3284C59.6286 60.8494 59.6374 60.3495 59.5348 59.8666C59.4322 59.3837 59.221 58.9305 58.9171 58.5414C58.6133 58.1524 58.2248 57.8376 57.7811 57.6211C57.3374 57.4046 56.8503 57.292 56.3566 57.2919H54.4603L52.2145 53.8794C51.9192 53.4291 51.5162 53.0595 51.0421 52.8041C50.568 52.5488 50.0376 52.4157 49.4991 52.4169H44.5526L41.0589 48.8825C40.544 48.3625 39.8688 48.0315 39.1424 47.9431C38.4161 47.8546 37.6811 48.0138 37.0565 48.395L32.5 51.1738V48.4113C32.4981 47.8731 32.3637 47.3437 32.1087 46.8698C31.8536 46.3959 31.4857 45.9922 31.0375 45.6943L27.625 43.4144V40.7494L34.2875 39.425C34.5541 39.365 34.8123 39.2722 35.0561 39.1488L41.015 36.1669C41.4688 35.945 41.8598 35.6132 42.1525 35.2016L46.4474 29.4654L51.7611 28.1361C52.557 27.96 53.2513 27.4771 53.6932 26.7923L54.236 25.9798C57.5088 28.6496 60.7604 31.5048 63.9324 34.5338H61.0074C60.4704 34.5348 59.9418 34.6678 59.4683 34.9212C58.9948 35.1745 58.5909 35.5403 58.292 35.9865L55.8886 39.5794C55.6512 39.9542 55.4924 40.3732 55.4217 40.8112C55.351 41.2492 55.37 41.6969 55.4775 42.1274L56.68 47.0316C56.8276 47.6059 57.1284 48.1294 57.5502 48.5461C57.9721 48.9628 58.4992 49.2571 59.0753 49.3976L64.1046 50.618C64.7082 50.7844 65.3477 50.7663 65.9409 50.566L69.4298 49.4431L71.5 51.5069V56.7556C71.5037 57.4582 71.7314 58.1413 72.15 58.7056L73.463 60.4525C71.3518 62.8128 69.1762 65.1147 66.9386 67.3555C59.6706 74.6841 51.7013 81.2823 43.1454 87.0554C35.4572 85.0792 28.6436 80.6046 23.7752 74.3347C18.9069 68.0647 16.2598 60.3549 16.25 52.4169ZM37.2125 63.514L35.1 62.4561L32.5 59.8691V54.9811L38.7498 51.1689L42.25 54.7016C42.8595 55.3155 43.6876 55.6626 44.5526 55.6669H49.4991L51.7465 59.0794C52.0426 59.529 52.4457 59.898 52.9197 60.1532C53.3936 60.4085 53.9235 60.5421 54.4619 60.5419H56.355L55.445 64.1965L52.6208 65.1325C51.9758 65.3462 51.4141 65.7565 51.0145 66.306C50.6149 66.8554 50.3975 67.5163 50.3929 68.1956L50.375 70.9094L45.6723 73.264C45.1307 73.5319 44.6751 73.9464 44.3574 74.4603C44.0397 74.9742 43.8726 75.5669 43.875 76.1711V81.0169L41.9006 80.3669L39 71.6731V66.4211C39.0031 65.818 38.8374 65.226 38.5215 64.7123C38.2056 64.1985 37.7521 63.7834 37.2125 63.514ZM52 88.1669C50.5578 88.1634 49.1171 88.0734 47.6856 87.8971C55.3775 82.4431 62.5875 76.3394 69.2364 69.6532C71.3647 67.5236 73.4378 65.3394 75.4536 63.1029L76.375 64.3281V69.6256C76.3767 70.4843 76.7171 71.3077 77.3224 71.9169L80.0069 74.6014C76.6655 78.8301 72.41 82.2473 67.5595 84.5967C62.709 86.9461 57.3895 88.1667 52 88.1669Z" fill="url(#paint0_linear_31_331)"/>
</g>
</g>
<defs>
<linearGradient id="paint0_linear_31_331" x1="11.9938" y1="12.1832" x2="100.654" y2="123.568" gradientUnits="userSpaceOnUse">
<stop stop-color="#007BC4"/>
<stop offset="1" stop-color="#0B4C97"/>
</linearGradient>
</defs>
</svg>

<svg width="104" height="105" fill="none" xmlns="http://www.w3.org/2000/svg"><path d="M90.118 60.65a38.851 38.851 0 0 0 0-16.465c11.212-17.33 14.155-31.41 7.847-37.736C92.38.882 80.663 2.503 65.812 10.9l1.6 2.828c13.285-7.512 23.85-9.378 28.255-4.982 4.727 4.74 2.065 16.799-6.721 31.2a38.969 38.969 0 0 0-45.175-25.654C26.441 3.093 12.35.143 6.032 6.453c-5.588 5.602-3.937 17.364 4.53 32.283l2.828-1.605C5.81 23.782 3.92 13.172 8.33 8.75c4.745-4.729 16.804-2.064 31.2 6.72a38.986 38.986 0 0 0 0 73.893c-14.41 8.786-26.47 11.45-31.2 6.724-4.388-4.407-2.535-14.965 4.972-28.244l-2.827-1.599C2.085 81.087.465 92.8 6.035 98.384a12.563 12.563 0 0 0 9.212 3.27c7.285 0 17.212-3.81 28.514-11.12a38.968 38.968 0 0 0 45.185-25.653c8.786 14.407 11.448 26.466 6.724 31.2-4.517 4.507-15.395 2.466-29.087-5.457l-1.625 2.811c9.397 5.445 17.57 8.219 23.796 8.219a12.547 12.547 0 0 0 9.214-3.27c6.305-6.317 3.359-20.404-7.85-37.733Zm-11.143 1.728-1.32-1.755a159.184 159.184 0 0 0 4.602-5.55 140.02 140.02 0 0 1 4.388 6.199 35.565 35.565 0 0 1-4.712 10.658l-2.308-2.304v-5.298a3.302 3.302 0 0 0-.65-1.95Zm-4.225-5.622v-5.25a3.317 3.317 0 0 0-.952-2.305l-2.056-2.04a3.26 3.26 0 0 0-3.313-.823l-3.5 1.137-5.096-1.233-1.218-4.9 2.387-3.55h5.136l3.18 2.112A167.078 167.078 0 0 1 80.23 52.417a159.754 159.754 0 0 1-4.568 5.544l-.912-1.205Zm6.103-25.414a35.794 35.794 0 0 1 3.215 5.294l-4.726 2.698-7.203-1.45-.741-.487c-.715-.74-1.43-1.482-2.162-2.212a175.274 175.274 0 0 0-4.194-4.044c.352.036.707.012 1.05-.072l5.22-1.3 5.115 2.552a3.25 3.25 0 0 0 3.25-.199l1.176-.78Zm4.525 8.288c.496 1.285.917 2.6 1.26 3.934a131.115 131.115 0 0 1-4.387 6.196 167.007 167.007 0 0 0-6.654-7.862l3.154.632a3.348 3.348 0 0 0 2.208-.385l4.418-2.515Zm-1.06 12.787a145.331 145.331 0 0 0 3.162-4.313 34.63 34.63 0 0 1 0 8.627 143.516 143.516 0 0 0-3.162-4.314ZM78.813 28.8l-.925.616L72.8 26.88a3.18 3.18 0 0 0-2.275-.27l-5.22 1.3-2.925-1.937 1.872-2.806h6.76c.4-.01.793-.092 1.16-.245a36.095 36.095 0 0 1 6.64 5.879Zm-11.948-8.884h-2.612a3.273 3.273 0 0 0-2.716 1.454l-1.88 2.81a3.25 3.25 0 0 0-.518 1.672 166.987 166.987 0 0 0-3.403-2.828 3.242 3.242 0 0 0-2.704-3.492l-2.275-.385a147.024 147.024 0 0 0-3.063-2.211 35.997 35.997 0 0 1 4.306-.27 35.536 35.536 0 0 1 14.865 3.25Zm-24.33-1.968 1.15 2.038a3.16 3.16 0 0 0 2.31 1.662l3.43.574c.753.565 1.509 1.137 2.263 1.724l-.699 1.04-5.362 1.34a3.216 3.216 0 0 0-1.768 1.195l-4.3 5.746-5.962 2.98-6.609 1.313a3.25 3.25 0 0 0-2.613 3.188v2.665a3.277 3.277 0 0 0 1.462 2.717l3.413 2.288v3.002l-7.067-3.544-4.431-5.688a35.884 35.884 0 0 1 24.782-24.24ZM16.25 52.417c.003-2.067.184-4.13.543-6.165l2.805 3.596c.3.392.684.71 1.124.933l7.077 3.55c.45.222.947.338 1.45.34h.043a3.03 3.03 0 0 0-.042.325v4.888c.007.856.349 1.676.952 2.283l2.587 2.587c.247.247.533.453.845.61l2.113 1.057v5.252c-.003.349.052.696.162 1.027l2.9 8.697a3.27 3.27 0 0 0 2.07 2.057l1.976.65a3.25 3.25 0 0 0 4.27-3.087V76.17l4.703-2.355a3.23 3.23 0 0 0 1.797-2.884l.018-2.714 2.827-.939a3.236 3.236 0 0 0 2.13-2.298l.91-3.653a3.25 3.25 0 0 0-3.153-4.036H54.46l-2.245-3.413a3.24 3.24 0 0 0-2.716-1.462h-4.946l-3.494-3.535a3.25 3.25 0 0 0-4.002-.487L32.5 51.174V48.41a3.278 3.278 0 0 0-1.462-2.717l-3.413-2.28V40.75l6.663-1.324c.266-.06.524-.153.768-.276l5.959-2.982a3.028 3.028 0 0 0 1.138-.965l4.294-5.737 5.314-1.329a3.095 3.095 0 0 0 1.932-1.344l.543-.812a165.889 165.889 0 0 1 9.696 8.554h-2.925a3.275 3.275 0 0 0-2.715 1.453l-2.403 3.592a3.278 3.278 0 0 0-.412 2.548l1.203 4.905a3.275 3.275 0 0 0 2.395 2.366l5.03 1.22a3.135 3.135 0 0 0 1.836-.052l3.489-1.123 2.07 2.064v5.249c.004.702.231 1.385.65 1.95l1.313 1.746a172.92 172.92 0 0 1-6.524 6.904 157.879 157.879 0 0 1-23.794 19.7 35.81 35.81 0 0 1-26.895-34.64Zm20.962 11.097L35.1 62.456l-2.6-2.587v-4.888l6.25-3.812 3.5 3.533c.61.614 1.438.96 2.303.965h4.946l2.247 3.412a3.249 3.249 0 0 0 2.716 1.463h1.893l-.91 3.654-2.824.936a3.25 3.25 0 0 0-2.228 3.064l-.018 2.713-4.703 2.355a3.23 3.23 0 0 0-1.797 2.907v4.846l-1.974-.65L39 71.673v-5.252a3.23 3.23 0 0 0-1.788-2.907ZM52 88.167a36.01 36.01 0 0 1-4.314-.27 164.924 164.924 0 0 0 21.55-18.244 175.213 175.213 0 0 0 6.218-6.55l.921 1.225v5.298a3.26 3.26 0 0 0 .947 2.29l2.685 2.685A35.697 35.697 0 0 1 52 88.167Z" fill="url(#a)"/><defs><linearGradient id="a" x1="11.994" y1="12.183" x2="100.654" y2="123.568" gradientUnits="userSpaceOnUse"><stop stop-color="#007BC4"/><stop offset="1" stop-color="#0B4C97"/></linearGradient></defs></svg>
